packages/core/src/svgs/tokens/branded/MED.svg

<svg width="24" height="24" viewBox="0 0 24 24" fill="none" xmlns="http://www.w3.org/2000/svg">
<path d="M19.0062 5.68438C19.5061 4.59058 20.4186 4.19681 21.2687 4.70934C22.4375 5.40937 21.8938 6.56568 21.6374 7.22822L17.4372 18.4663C16.9559 19.3975 16.1122 19.7788 15.281 19.3162C14.4434 18.8475 14.4309 17.8037 14.7809 17.0225C16.4309 13.3159 18.6248 6.52193 19.0062 5.68438Z" fill="#8FB9F4"/>
<path d="M6.70555 5.49688C7.04307 4.67809 8.08062 4.39684 8.74316 4.72184C9.79318 5.24062 9.5995 6.16566 9.37447 6.82194L4.59296 18.7912C4.1367 19.5038 3.2929 19.6851 2.67413 19.2976C1.91784 18.8224 1.93658 17.7225 2.0741 17.2911C3.52417 13.6159 6.36805 6.32817 6.69931 5.50314L6.70555 5.49688ZM13.3122 5.34063C13.5496 4.78435 14.4621 4.30933 15.0997 4.7156C15.881 5.20311 15.806 6.13442 15.6559 6.54069L13.1872 12.8535C12.7809 13.666 11.9933 14.1223 11.1995 13.666C10.412 13.1972 10.6245 12.2347 10.8246 11.7597L13.3059 5.34063H13.3122Z" fill="#2073E9"/>
<path d="M20.4375 7.62199C21.3005 7.62199 22.0001 6.9224 22.0001 6.05942C22.0001 5.19642 21.3005 4.49684 20.4375 4.49684C19.5746 4.49684 18.875 5.19642 18.875 6.05942C18.875 6.9224 19.5746 7.62199 20.4375 7.62199Z" fill="#2073E9"/>
<path d="M16.062 19.4975C16.925 19.4975 17.6246 18.7979 17.6246 17.935C17.6246 17.0719 16.925 16.3723 16.062 16.3723C15.1991 16.3723 14.4995 17.0719 14.4995 17.935C14.4995 18.7979 15.1991 19.4975 16.062 19.4975Z" fill="#2073E9"/>
</svg>

<svg xmlns="http://www.w3.org/2000/svg" width="24" height="24" fill="none" viewBox="0 0 24 24">
    <path fill="#8FB9F4" d="M19.006 5.684c.5-1.093 1.413-1.487 2.263-.975 1.169.7.625 1.857.368 2.52l-4.2 11.237c-.481.931-1.325 1.313-2.156.85-.838-.468-.85-1.512-.5-2.293 1.65-3.707 3.844-10.501 4.225-11.339"/>
    <path fill="#2073E9" d="M6.706 5.497c.337-.819 1.375-1.1 2.037-.775 1.05.519.857 1.444.631 2.1l-4.781 11.97c-.456.712-1.3.893-1.919.506-.756-.476-.737-1.575-.6-2.007C3.524 13.616 6.368 6.328 6.7 5.503zm6.606-.156c.238-.557 1.15-1.032 1.788-.625.781.487.706 1.418.556 1.825l-2.469 6.313c-.406.812-1.194 1.268-1.987.812-.788-.469-.575-1.431-.375-1.906l2.48-6.42zm7.126 2.281a1.563 1.563 0 1 0 0-3.125 1.563 1.563 0 0 0 0 3.125m-4.376 11.876a1.563 1.563 0 1 0 0-3.126 1.563 1.563 0 0 0 0 3.125"/>
</svg>
